X:1
T: Miss Gordon of Bellie's Reel
C:William Marshall
R:Reel
Q: 232
K:D
M:4/4
L:1/8
|:g|fe fd ec dA|Bd gf e2 Ag|fe fd ec dA|Bd AG F2 Dg|
fe fd ec dA|Bd gf e2 Ag|fe fd ec dA|Bd AG F2 DG|
F2 AF G2 BG|F2 AF G1/2F1/2E1/2D1/2 CE|F2 AF G2 BG|Ed ce d2 DG|
F2 AF G2 BG|F2 AF G1/2F1/2E1/2D1/2 CE|F2 AF G2 BG|Ed ce d2 D:|
